X:1
T:Hugo Distler 1908 - 1942
T:Um Mitternacht
%%score [ ( 1 2 ) ( 3 4 ) ( 5 6 ) ]
L:1/8
Q:1/4=90
M:2/2
K:C
V:1 treble nm="Sopran"
V:2 treble 
V:3 treble nm="Alt"
V:4 treble 
V:5 bass nm="Bass"
V:6 bass 
V:1
"^Gelassene (calm)" F2 _A4 | _A2 F4 F2 | _D4 _E4 | !courtesy!=E4 z2 C2 | _D2 F2 G2 c2 | %5
w: Ge- las-|sen stieg die|Nacht ans|Land, lehnt|träu- mend an der|
w: |||||
w: Das ur-|alt al- te|Schlum- mer-|lied, sie|ach- tet's nicht, sie|
[M:2/2] (3(_B2 F2) G2 (_E4 | F2)"^," F2 c4 | _e2 _B3 B B2 x | _B2 _d4 d2 x | %9
w: Ber \- ge Wand,|* ihr Au-|ge sieht die gold-|ne Wa- ge|
w: ||||
w: ist * es müd;|* ihr klingt|des Him- mels Bläu-|e sü- ßer|
 c2"^,""^(  )" _A2 x4- | x2 !courtesy!_B2 B4 x2 | _B4 _A4 x | F8 x | _D4 _E8 x4 | F4 x4 | %15
w: nun der Zeit\_\_\_\_\_|in glei-|chen Scha-|len|stil- le|ruhn|
w: ||||||
w: noch, der flücht'-|gen Stun-|den gleich-|ge-|schwung'- nes|Joch.|
[M:6/4]"^(    =     )" z2 z2 =E2"^ruhig (tranquillo)" F4 F2 | E2 E2 E2 F2 F2 F2 | E8 z2 z2 | %18
w: und ke- cker|rau- schen die Quel- len her-|vor,|
w: |||
w: Doch im be-|hal- ten die Quel- len das|Wort,|
 z2 e2 c4 c2 c2 | A6 A2 z2 z2 | z2 A2 _E4 _B4 |"^}" A2"^," A2 _B8 | x12- | x4 z2 z6 | z6 z2 z2 A2 | %25
w: sie sin- gen der|Mut- ter,|der Nacht, ins|Ohr * *|ge,||vom|
w: |||* vom Ta-||||
w: es sin- gen die|Was- ser|im Schlaf noch|fort * *||||
 _B2 B2 B2 C2 C2 C2 |"^*)" (_E6 _D6) | C12 |] %28
w: heu- te ge- we- sen- nen|Ta- *|ge.|
w: |||
w: |||
V:2
 x6 | x8 | x8 | x8 | x8 |[M:2/2] x8 | x8 | x9 | x9 | x8 | x8 x2 | x8 x | x8 x | x4 x2 x2 x8 | %14
w: ||||||||||||||
w: ||||||||||||||
w: ||||||||||||||
 x4 C4 |[M:6/4] x4 x2 F2 F2 x2 | x12 | x12 | x12 | x12 | x12 | x12 | x12- | x4 x8 | x8 x2 A2 | %25
w: |||||||||||
w: |||||||||||
w: |* mer||||||||||
 _B2 B2 B2 C2 C2 C2 | (C8 _B,4) | =A,12 |] %28
w: |||
w: |||
w: |||
V:3
 z2 z2 C2 | _E2 E2 C4 | C2 _A,4 _B,2 | G,4 z2 C2 | _D2 F2 G2 c2 |[M:2/2] (3(_B2 F2) G2 (_E4 | %6
w: Ge-|las- sen stieg|die Nacht ans|Land, lehnt|träu- mend an der|Ber \- ge Wand,|
w: ||||||
w: Das|ur- alt al-|te Schlum- mer-|lied, sie|ach- tet's nicht, sie|ist * es müd;|
 F4) z2 C2 | G4 _B2 F3 | F F2 F2 _A4 | _A2 G2"^,""^(  )" _E2 x2 | F2 F2 F4 x2 | F2 F4 F2 x | %12
w: * ihr|Au- ge sieht|die gold- ne Wa-|ge nun der|Zeit in glei-|chen Scha- len|
w: ||||||
w: * ihr|klingt des Him-|mels Bläu- e sü-|ßer noch, der|flücht'- gen Stun-|den gleich- ge-|
 _E4 _B4 x | (x8- x8 |[M:6/4] x6 x2) |[M:6/4] x12 | x4 x2 x6 |"^[ruhig (tranquillo)]" c2 c2 x8 | %18
w: stil- le|ruhn|||||
w: ||||||
w: schwung'- nes|Joch.||||* mer|
 c2 c2 c2 A6 | z2 A2 F4 F2 F2 | A6 A2 z2 z2 | z2 A2 F6 F2 |"^}" E2"^," E2 ^C8 | A,2"^," E2 ^C8 | %24
w: Quel- len her- vor,|sie sin- gen der|Mut- ter,|der Nacht, ins|Ohr * *||
w: ||||* vom Ta-|ge, vom Ta-|
w: Quel- len das Wort|es sin- gen die|Was- ser|im Schlaf noch|fort * *||
 A,2 z2 z4 z2 E2 | _B,2 B,2 B,2 B,2 B,2 B,2 |"^*)" F12 | F12 |] %28
w: ||||
w: ge, vom|heu- te ge- we- sen- nen|Ta-|ge.|
w: ||||
V:4
 x6 | x8 | x8 | x8 | x8 |[M:2/2] x8 | x8 | x9 | x9 | x8 | x8 x2 | x8 x | x8 x | =A16 |[M:6/4] x8 | %15
w: |||||||||||||||
w: |||||||||||||||
w: |||||||||||||||
[M:6/4] A12 | A6 z2 z2 A2 | c4 c2 A2 A2 A2 | x12 | x12 | x12 | x12 | x12 | x12 | x12 | x12 | x12 | %27
w: |* und|ke- cker rau- schen die||||||||||
w: ||||||||||||
w: |* Doch|im be- hal- ten die||||||||||
 x12 |] %28
w: |
w: |
w: |
V:5
 z2 z4 | z2 F,2 _A,2 A,2 | F,2 F,2 =B,,2 _E,2 | C,4 z2 C,2 | _D,2 F,2 G,2 C2 | %5
w: |Ge- las- sen|stieg die Nacht ans|Land, lehnt|träu- mend an der|
w: |||||
w: |Das ur- alt|al- te Schlum- mer-|lied, sie|ach- tet's nicht, sie|
[M:2/2] (3(_B,2 F,2) G,2 (_E,4 | F,8) | z8 x | z4 z2 F,2 x | C4 _E2 x2- | x8 x2 | x8 x | x8 x | %13
w: Ber \- ge Wand,|||ihr|Au- ge sieht\_\_||||
w: ||||||||
w: ist * es müd;|||ihr|klingt des Him-||||
 x4 x2 _G,4 x6 | _A,2 F,4 x2 |[M:6/4] x2 x2 x2"^ruhig (tranquillo)" C2 C2 x2 | x12 | x12 | %18
w: |||||
w: |||||
w: ||* mer|||
 z2 A,2 F,4 F,2 F,2 | A,6 A,2 z2 z2 | z2 A,2 F,6 F,2 |"^}" E,2"^," E,2 ^C,8 | %22
w: sie sin- gen der|Mut- ter,|der Nacht, ins|Ohr * *|
w: |||* vom Ta-|
w: es sin- gen die|Was- ser|im Schlaf noch|fort * *|
"^*)  Wenn nötig Stimmenvertauschung.\n      swapp parts if necessary" x12- | x4 z2 z6 | %24
w: ge.||
w: ||
w: ||
 z6 z2 z2 E,2 | _B,2 B,2 B,2 B,2 B,2 B,2 | (_A,8 _G,4) | F,12 |] %28
w: vom|heu- te ge- we- sen- nen|Ta- *|ge.|
w: ||||
w: ||||
V:6
 x6 | x8 | x8 | x8 | x8 |[M:2/2] x8 | x8 | x9 | x9 | x8 |x!courtesy!_B, B,2 B,2 _D4 | %11
w: ||||||||||die gold- ne Wa-|
w: |||||||||||
w: ||||||||||mels Bläu- e sü-|
 _D2 C2"^,""^(  )" _A,2 _B,3 | _B, _D2 D2 _G,4 | _G,2 G,4 C,2 x8 | F,4 x4 | %15
w: ge nun der Zeit|in glei- chen Scha-|len stil- le|ruhn;|
w: ||||
w: ßer noch, der flücht'-|gen Stun- den gleich-|ge- schwung'- nes|Joch.|
[M:6/4] z2 z2 A,2 C4 C2 | A,2 A,2 A,2 C2 C2 C2 | A,8 z2 z2 | x12 | x12 | x12 | x12 | x12 | x12 | %24
w: und ke- cker|rau- schen die Quel- len her-|vor,|||||||
w: |||||||||
w: Doch im be-|hal- ten die Quel- len das|Wort,|||||||
 x4 x4 x2 E,2 | _B,,2 B,,2 B,,2 E,,2 E,,2 E,,2 | F,,12 | F,,12 |] %28
w: ||||
w: ||||
w: ||||

